assets/svg/loup-gray.svg

<svg fill="none" height="887" viewBox="0 0 795 887" width="795" xmlns="http://www.w3.org/2000/svg" xmlns:xlink="http://www.w3.org/1999/xlink"><mask id="a" fill="#fff"><path clip-rule="evenodd" d="m213.34 513.449c.914-.528 1.844-1.027 2.799-1.483 18.209-8.684 39.264-2.055 46.988 14.786 18.78 40.902 69.413 59.89 115.27 43.207 18.932-6.872 38.97 1.888 44.749 19.546 5.802 17.665-4.838 37.582-23.77 44.455-80.46 29.249-169.282-4.022-202.2-75.742-7.331-15.963-.097-35.381 16.164-44.769z" fill="#fff" fill-rule="evenodd"/></mask><g opacity=".2"><path clip-rule="evenodd" d="m213.34 513.449c.914-.528 1.844-1.027 2.799-1.483 18.209-8.684 39.264-2.055 46.988 14.786 18.78 40.902 69.413 59.89 115.27 43.207 18.932-6.872 38.97 1.888 44.749 19.546 5.802 17.665-4.838 37.582-23.77 44.455-80.46 29.249-169.282-4.022-202.2-75.742-7.331-15.963-.097-35.381 16.164-44.769z" fill="#eb4526" fill-rule="evenodd"/><path d="m216.139 511.966-27.98-58.67-.017.008-.016.008zm46.988 14.786-59.082 27.099.006.011.005.012zm115.27 43.207-22.179-61.099-.022.008-.021.008zm44.749 19.546-61.776 20.217.011.033.01.032zm-23.77 44.455-22.179-61.099-.014.005-.014.005zm-202.2-75.742 59.075-27.114-.004-.008-.003-.008zm48.664 11.522c-.248.143-.831.471-1.688.88l-56.026-117.308c-2.767 1.322-5.211 2.647-7.286 3.845zm-1.721.896c-9.648 4.601-30.508 4.069-40.074-16.785l118.164-54.198c-25.014-54.536-87.984-68.326-134.05-46.357zm-40.063-16.762c34.688 75.549 123.084 103.9 196.563 77.169l-44.444-122.167c-8.24 2.998-16.39 2.595-22.749.211-6.311-2.366-9.694-6.116-11.228-9.457zm196.52 77.184c-10.651 3.867-32.001.681-39.206-21.336l123.552-40.434c-18.763-57.334-80.189-78.039-128.704-60.428zm-39.185-21.271c-3.21-9.774-1.343-18.729 1.821-24.649 3.14-5.875 8.15-10.159 13.985-12.277l44.358 122.198c47.516-17.248 81.517-70.506 63.346-125.836zm15.778-36.916c-52.891 19.227-103.924-4.74-120.918-41.767l-118.15 54.228c48.842 106.413 175.453 148.988 283.483 109.716zm-120.925-41.783c8.647 18.827-1.883 33.733-10.404 38.652l-65-112.583c-41.043 23.696-66.041 77.439-42.732 128.19z" fill="#70738c" mask="url(#a)"/><circle cx="351.275" cy="443.275" r="292" stroke="#70738c" stroke-width="65" transform="matrix(-.8660254 .5 -.5 -.8660254 877.125574 651.524911)"/></g></svg>

<svg width="795" height="887" viewBox="0 0 795 887" fill="none" xmlns="http://www.w3.org/2000/svg">
<g opacity="0.2">
<mask id="path-1-inside-1" fill="white">
<path fill-rule="evenodd" clip-rule="evenodd" d="M213.34 513.449C214.254 512.921 215.184 512.422 216.139 511.966C234.348 503.282 255.403 509.911 263.127 526.752C281.907 567.654 332.54 586.642 378.397 569.959C397.329 563.087 417.367 571.847 423.146 589.505C428.948 607.17 418.308 627.087 399.376 633.96C318.916 663.209 230.094 629.938 197.176 558.218C189.845 542.255 197.079 522.837 213.34 513.449Z"/>
</mask>
<path fill-rule="evenodd" clip-rule="evenodd" d="M213.34 513.449C214.254 512.921 215.184 512.422 216.139 511.966C234.348 503.282 255.403 509.911 263.127 526.752C281.907 567.654 332.54 586.642 378.397 569.959C397.329 563.087 417.367 571.847 423.146 589.505C428.948 607.17 418.308 627.087 399.376 633.96C318.916 663.209 230.094 629.938 197.176 558.218C189.845 542.255 197.079 522.837 213.34 513.449Z" fill="#EB4526"/>
<path d="M216.139 511.966L188.159 453.296L188.142 453.304L188.126 453.312L216.139 511.966ZM263.127 526.752L204.045 553.851L204.051 553.862L204.056 553.874L263.127 526.752ZM378.397 569.959L356.218 508.86L356.196 508.868L356.175 508.876L378.397 569.959ZM423.146 589.505L361.37 609.722L361.381 609.755L361.391 609.787L423.146 589.505ZM399.376 633.96L377.197 572.861L377.183 572.866L377.169 572.871L399.376 633.96ZM197.176 558.218L256.251 531.104L256.247 531.096L256.244 531.088L197.176 558.218ZM245.84 569.74C245.592 569.883 245.009 570.211 244.152 570.62L188.126 453.312C185.359 454.634 182.915 455.959 180.84 457.157L245.84 569.74ZM244.119 570.636C234.471 575.237 213.611 574.705 204.045 553.851L322.209 499.653C297.195 445.117 234.225 431.327 188.159 453.296L244.119 570.636ZM204.056 553.874C238.744 629.423 327.14 657.774 400.619 631.043L356.175 508.876C347.935 511.874 339.785 511.471 333.426 509.087C327.115 506.721 323.732 502.971 322.198 499.63L204.056 553.874ZM400.576 631.058C389.925 634.925 368.575 631.739 361.37 609.722L484.922 569.288C466.159 511.954 404.733 491.249 356.218 508.86L400.576 631.058ZM361.391 609.787C358.181 600.013 360.048 591.058 363.212 585.138C366.352 579.263 371.362 574.979 377.197 572.861L421.555 695.059C469.071 677.811 503.072 624.553 484.901 569.223L361.391 609.787ZM377.169 572.871C324.278 592.098 273.245 568.131 256.251 531.104L138.101 585.332C186.943 691.745 313.554 734.32 421.584 695.048L377.169 572.871ZM256.244 531.088C264.891 549.915 254.361 564.821 245.84 569.74L180.84 457.157C139.797 480.853 114.799 534.596 138.108 585.347L256.244 531.088Z" fill="#70738C" mask="url(#path-1-inside-1)"/>
<circle cx="351.275" cy="443.275" r="292" transform="rotate(150 351.275 443.275)" stroke="#70738C" stroke-width="65"/>
</g>
</svg>
